assets/svg/icon-ui-ticket-press-white.svg

<?xml version="1.0" encoding="UTF-8" standalone="no"?>
<svg width="37px" height="32px" viewBox="0 0 37 32" version="1.1" xmlns="http://www.w3.org/2000/svg" xmlns:xlink="http://www.w3.org/1999/xlink">
    <!-- Generator: Sketch 3.8.3 (29802) - http://www.bohemiancoding.com/sketch -->
    <title>white/icon-ui-ticket-press-white</title>
    <desc>Created with Sketch.</desc>
    <defs></defs>
    <g id="white" stroke="none" stroke-width="1" fill="none" fill-rule="evenodd">
        <g id="icons,-utility-white" transform="translate(-873.000000, -633.000000)" fill="#FFFFFF">
            <g id="white/icon-ui-ticket-press-white" transform="translate(873.000000, 633.000000)">
                <g id="ticket">
                    <g id="Page-1">
                        <g id="ticket">
                            <path d="M28.9788612,2.57598384 C28.0109374,3.13479225 26.7733024,2.80320745 26.2144855,1.83537856 C25.7211071,0.980058647 24.6275324,0.687257122 23.7720365,1.18068137 L3.23062996,13.0397 C2.37525087,13.5330568 2.08241222,14.6266463 2.5758957,15.4821481 C3.134901,16.4503033 2.80331801,17.6877915 1.83544248,18.2465721 C0.980066026,18.7399274 0.687227371,19.8335169 1.18071085,20.6890186 L5.83998667,28.7588513 C6.33337319,29.6141851 7.42694782,29.9069866 8.28244373,29.4135624 C9.25070804,28.8545574 10.488343,29.1861422 11.04716,30.1539711 C11.5405385,31.009291 12.6341131,31.3020925 13.489609,30.8086683 L34.0310156,18.9496497 C34.8863947,18.4562929 35.1792332,17.3627034 34.6857498,16.5072017 C34.1267445,15.5390463 34.4583275,14.3015582 35.426203,13.7427775 C36.2815794,13.2494223 36.5744182,12.1558329 36.0809348,11.3003311 L31.4216589,3.23049831 C30.9281606,2.37497124 29.8341606,2.0817792 28.978563,2.57615602 L28.9788612,2.57598384 Z M29.9203072,4.20599362 C29.875282,4.23200985 29.8173393,4.21648121 29.7913186,4.17137179 L34.4505943,12.2412043 C34.424662,12.1962483 34.4401227,12.1385111 34.4853957,12.112399 C32.6168283,13.1911733 31.9767623,15.5799392 33.0554174,17.4480887 C33.0294771,17.403119 33.0449379,17.3453818 33.090211,17.3192696 L12.5488044,29.1782882 C12.5937198,29.1523823 12.6513835,29.1678216 12.6774924,29.2130839 C11.5986618,27.3446304 9.20983744,26.7046211 7.34163647,27.7831839 C7.38655451,27.7572764 7.44421817,27.7727157 7.47032711,27.8179781 L2.81105129,19.7481454 C2.83698352,19.7931013 2.82152279,19.8508385 2.77624974,19.8769506 C4.64481719,18.7981764 5.28488325,16.4094104 4.20622812,14.5412609 C4.23216837,14.5862307 4.21670764,14.6439679 4.17143459,14.67008 L24.7128411,2.81106143 C24.6679257,2.83696737 24.610262,2.82152809 24.584153,2.77626562 C25.6629837,4.6447193 28.051808,5.28472853 29.9200091,4.20616581 L29.9203072,4.20599362 Z" id="Path"></path>
                            <polygon id="Line" points="10.0715636 18.8851071 24.3774459 10.6027542 23.4343188 8.97371644 9.12843647 17.2560694"></polygon>
                            <polygon id="Line-Copy" points="13.0833283 23.5909894 27.3892106 15.3086365 26.4460835 13.6795988 12.1402012 21.9619517"></polygon>
                        </g>
                    </g>
                </g>
            </g>
        </g>
    </g>
</svg>

<svg width="37" height="32" viewBox="0 0 37 32" xmlns="http://www.w3.org/2000/svg"><title>white/icon-ui-ticket-press-white</title><g fill="#FFF" fill-rule="evenodd"><path d="M28.979 2.576a2.024 2.024 0 0 1-2.765-.74 1.788 1.788 0 0 0-2.442-.655L3.231 13.04a1.788 1.788 0 0 0-.655 2.442 2.023 2.023 0 0 1-.74 2.765 1.788 1.788 0 0 0-.655 2.442l4.659 8.07a1.788 1.788 0 0 0 2.442.655 2.024 2.024 0 0 1 2.765.74 1.788 1.788 0 0 0 2.443.655l20.541-11.86a1.788 1.788 0 0 0 .655-2.442 2.023 2.023 0 0 1 .74-2.764 1.788 1.788 0 0 0 .655-2.443l-4.66-8.07a1.788 1.788 0 0 0-2.442-.654zm.941 1.63a.095.095 0 0 1-.129-.035l4.66 8.07a.094.094 0 0 1 .034-.129 3.906 3.906 0 0 0-1.43 5.336.094.094 0 0 1 .035-.129L12.55 29.18a.094.094 0 0 1 .128.034 3.906 3.906 0 0 0-5.335-1.43.094.094 0 0 1 .128.035l-4.659-8.07a.094.094 0 0 1-.035.129 3.906 3.906 0 0 0 1.43-5.336.094.094 0 0 1-.035.13L24.713 2.81a.094.094 0 0 1-.129-.035 3.906 3.906 0 0 0 5.336 1.43z"/><path d="M10.072 18.885l14.305-8.282-.943-1.63-14.306 8.283zM13.083 23.591l14.306-8.282-.943-1.63-14.306 8.283z"/></g></svg>
